src/assets/icons/Favicon.svg

<svg fill="none" height="16" viewBox="0 0 16 16" width="16" xmlns="http://www.w3.org/2000/svg"><path clip-rule="evenodd" d="m15.3712 11.114c-.4029.9527-.9797 1.8082-1.7143 2.5429-.7347.7346-1.5902 1.3114-2.5429 1.7144-.9864.4172-2.03409.6287-3.11403.6287-1.07988 0-2.12758-.2115-3.114-.6287-.95266-.403-1.80815-.9798-2.54284-1.7144-.73463-.7347-1.31139-1.5902-1.714331-2.5429-.417255-.9864-.628799-2.03409-.628799-3.11403 0-1.07988.211544-2.12758.628799-3.114.402941-.95266.979701-1.80815 1.714331-2.54284.73469-.73457 1.59018-1.31139 2.54284-1.714331.98642-.417196 2.03412-.628799 3.114-.628799 1.07994 0 2.12763.211603 3.11403.628799.9527.402941 1.8082.979761 2.5429 1.714331.7346.73469 1.3114 1.59018 1.7143 2.54284.4173.98642.6288 2.03412.6288 3.114 0 1.07994-.2115 2.12763-.6288 3.11403zm-7.37123-10.686728c-4.17561 0-7.572698 3.397088-7.572698 7.572698 0 4.17563 3.397088 7.57283 7.572698 7.57283 4.17563 0 7.57273-3.3972 7.57273-7.57283 0-4.17561-3.3971-7.572698-7.57273-7.572698zm4.95753 9.708228-.577.5828c-.536.5414-1.3933.5533-1.9148.0266-.52158-.5268-.5098-1.39264.0262-1.93405l-1.7837 1.80155c-.53599.5413-1.39324.5532-1.9148.0265-.52149-.5268-.50977-1.39265.02622-1.934l-1.88857 1.9075c-.536.5413-1.39331.5532-1.9148.0265-.5215-.5268-.50977-1.39265.02622-1.934l4.24933-4.29187c.53599-.54136 1.3933-.5532 1.9148-.02646.52155.52674.50977 1.3926-.02622 1.93395.53599-.54135 1.39332-.5532 1.91482-.02646s.5097 1.3926-.0262 1.93395c.5359-.54135 1.3933-.55319 1.9148-.02651.5215.5268.5097 1.39265-.0263 1.934z" fill="#f00d32" fill-rule="evenodd"/></svg>

<svg width="16" height="16" viewBox="0 0 16 16" fill="none" xmlns="http://www.w3.org/2000/svg">
<path fill-rule="evenodd" clip-rule="evenodd" d="M15.3712 11.114C14.9683 12.0667 14.3915 12.9222 13.6569 13.6569C12.9222 14.3915 12.0667 14.9683 11.114 15.3713C10.1276 15.7885 9.07991 16 7.99997 16C6.92009 16 5.87239 15.7885 4.88597 15.3713C3.93331 14.9683 3.07782 14.3915 2.34313 13.6569C1.6085 12.9222 1.03174 12.0667 0.628799 11.114C0.211544 10.1276 0 9.07991 0 7.99997C0 6.92009 0.211544 5.87239 0.628799 4.88597C1.03174 3.93331 1.6085 3.07782 2.34313 2.34313C3.07782 1.60856 3.93331 1.03174 4.88597 0.628799C5.87239 0.211603 6.92009 0 7.99997 0C9.07991 0 10.1276 0.211603 11.114 0.628799C12.0667 1.03174 12.9222 1.60856 13.6569 2.34313C14.3915 3.07782 14.9683 3.93331 15.3712 4.88597C15.7885 5.87239 16 6.92009 16 7.99997C16 9.07991 15.7885 10.1276 15.3712 11.114ZM7.99997 0.427272C3.82436 0.427272 0.427272 3.82436 0.427272 7.99997C0.427272 12.1756 3.82436 15.5728 7.99997 15.5728C12.1756 15.5728 15.5727 12.1756 15.5727 7.99997C15.5727 3.82436 12.1756 0.427272 7.99997 0.427272ZM12.9575 10.1355L12.3805 10.7183C11.8445 11.2597 10.9872 11.2716 10.4657 10.7449C9.94412 10.2181 9.9559 9.35226 10.4919 8.81085L8.7082 10.6124C8.17221 11.1537 7.31496 11.1656 6.7934 10.6389C6.27191 10.1121 6.28363 9.24625 6.81962 8.7049L4.93105 10.6124C4.39505 11.1537 3.53774 11.1656 3.01625 10.6389C2.49475 10.1121 2.50648 9.24625 3.04247 8.7049L7.2918 4.41303C7.82779 3.87167 8.6851 3.85983 9.2066 4.38657C9.72815 4.91331 9.71637 5.77917 9.18038 6.32052C9.71637 5.77917 10.5737 5.76732 11.0952 6.29406C11.6167 6.8208 11.6049 7.68666 11.069 8.22801C11.6049 7.68666 12.4623 7.67482 12.9838 8.2015C13.5053 8.7283 13.4935 9.59415 12.9575 10.1355Z" fill="#F00D32"/>
</svg>
